UI/Core-UI/SVG/hide_outline_24px.svg

<svg width="24" height="24" viewBox="0 0 24 24" fill="none" xmlns="http://www.w3.org/2000/svg">
<path d="M18.79 7.79L17.36 9.22C17.875 9.64579 18.3534 10.1141 18.79 10.62C19.1256 11.0134 19.4268 11.4349 19.69 11.88C18.57 13.46 15.88 16.69 12.43 16.98H11.94C11.2428 16.958 10.5495 16.8676 9.87 16.71L8.37 18.21C9.49031 18.7241 10.7074 18.9934 11.94 19C18.06 19 22 12 22 12C21.267 10.3691 20.1686 8.92864 18.79 7.79ZM12 15C12.6018 14.9943 13.188 14.8076 13.6824 14.4644C14.1767 14.1211 14.5564 13.6371 14.7721 13.0753C14.9878 12.5134 15.0295 11.8997 14.8918 11.3138C14.7541 10.7279 14.4434 10.197 14 9.79L20.37 3.41L19 2L15.31 5.66C14.2575 5.23552 13.1348 5.01167 12 5C5.83 5 2 12 2 12C2.68399 13.5434 3.70983 14.9112 5 16L2 19L3.41 20.41L9.79 14C10.0685 14.3114 10.4089 14.5611 10.7894 14.7333C11.17 14.9055 11.5823 14.9964 12 15ZM12 13C11.8456 12.9973 11.6939 12.9589 11.5569 12.8877C11.4198 12.8166 11.3011 12.7147 11.21 12.59L12.59 11.21C12.7147 11.3011 12.8166 11.4198 12.8877 11.5569C12.9589 11.6939 12.9973 11.8456 13 12C13 12.2652 12.8946 12.5196 12.7071 12.7071C12.5196 12.8946 12.2652 13 12 13ZM6.39 14.58L6.29 14.49C5.49971 13.8094 4.82438 13.0057 4.29 12.11C5.43 10.47 8.27 7 12 7C12.6013 7.00176 13.1997 7.08245 13.78 7.24L12 9C11.2044 9 10.4413 9.31607 9.87868 9.87868C9.31607 10.4413 9 11.2044 9 12L6.39 14.58Z" fill="#0F1621"/>
</svg>

<svg xmlns="http://www.w3.org/2000/svg" width="24" height="24" viewBox="0 0 24 24"><rect width="24" height="24" style="fill:none"/><path d="M18.79,7.79,17.36,9.22a11.93,11.93,0,0,1,1.43,1.4,9,9,0,0,1,.9,1.26c-1.12,1.58-3.81,4.81-7.26,5.1h-.49a10.65,10.65,0,0,1-2.07-.27l-1.5,1.5a8.67,8.67,0,0,0,3.57.79C18.06,19,22,12,22,12A11.66,11.66,0,0,0,18.79,7.79ZM12,15a3,3,0,0,0,2-5.21l6.37-6.38L19,2,15.31,5.66A9.1,9.1,0,0,0,12,5C5.83,5,2,12,2,12a11.14,11.14,0,0,0,3,4L2,19l1.41,1.41L9.79,14A3,3,0,0,0,12,15Zm0-2a1,1,0,0,1-.79-.41l1.38-1.38A1,1,0,0,1,13,12,1,1,0,0,1,12,13ZM6.39,14.58l-.1-.09a9.7,9.7,0,0,1-2-2.38C5.43,10.47,8.27,7,12,7a6.87,6.87,0,0,1,1.78.24L12,9a3,3,0,0,0-3,3Z"/></svg>
